X: 5
T: Have A Drink With Me
R: jig
M: 6/8
L: 1/8
K: Gmaj
|: BAG EGD | EGD EGD | BAG EGD ||EAA AGA | BAG EGD | EGD EGD || BAG EGD |1 EGG G2A:|2 EGG G3|||:c2d efg | ded BAG | c2d efg |def gdB |c2d efg | ded BAG |BAG EGD |1 EGG G3 :|2 EGG G2A :||


Tune 1922	Setting 1922

